X:81
T:Happy Ne
R:reel
C:Bruce Osborne - Dec. 2003
Z:abc by bosborne@kos.net
M:2/4
L:1/8
K:C
g/f/|ec c/B/c/d/|fd d/e/d/c/|B/c/B/A/ G/A/B/d/|a/g/g/^f/ gg/^f/|\
ec c/B/c/d/|fd d/e/d/c/|B/c/B/A/ G/A/B/d/|c/d/c/B/ c:|
|:e/f/|g/c/B/c/ G/c/B/c/|e/c/g/f/ e/c/B/c/|B/G/^F/G/ D/G/^F/G/|B/G/B/c/ de/f/|\
g/c/B/c/ G/c/B/c/|e/c/g/f/ e/c/B/c/|B/G/^F/G/ D/G/^F/G/|B/G/A/B/ c:|
